gama.ui.shared/icons_svg/light/navigator/editor.link.svg

<svg height="24.75" viewBox="-884.358 -3555.294 24.75 24.75" width="24.75" xmlns="http://www.w3.org/2000/svg"><g fill="none"><circle cx="-871.983" cy="-3542.919" fill="#666" r="8"/><circle cx="-871.983" cy="-3542.919" r="8"/><circle cx="-871.983" cy="-3542.919" fill="#fff" r="8"/><circle cx="-871.983" cy="-3542.919" r="8"/><g fill="#5d76a1"><path d="m-863.9828-3542.9187c0 4.4211-3.5789 8-8 8-4.421 0-8-3.5789-8-8s3.579-8 8-8c4.4211 0 8 3.5789 8 8zm-.8421 0c0-3.9493-3.2084-7.1579-7.1579-7.1579-3.9494 0-7.1579 3.2086-7.1579 7.1579 0 3.9495 3.2085 7.1577 7.1579 7.1577 3.9495 0 7.1579-3.2082 7.1579-7.1577z"/><path d="m-873.5238-3540.2492c.1516.1768.1347.4462-.0421.5979-.1769.1515-.4463.1347-.5979-.0421l-2.5263-2.9476c-.1348-.16-.1348-.387 0-.547l2.5263-2.9475c.1516-.1769.421-.1937.5979-.0421.1768.1516.1937.421.0421.5978l-2.2905 2.6695 2.2905 2.6693z"/><path d="m-868.1428-3542.9187-2.2905-2.6693c-.1516-.177-.1347-.4465.0421-.598.1769-.1516.4463-.135.5979.042l2.5263 2.9474c.1348.16.1348.3874 0 .5474l-2.5263 2.9472c-.1516.177-.421.194-.5979.0422-.1768-.1515-.1937-.4212-.0421-.5978l2.2905-2.6694z"/></g></g></svg>

<?xml version="1.0" encoding="UTF-8" standalone="no"?>
<!DOCTYPE svg PUBLIC "-//W3C//DTD SVG 1.1//EN" "http://www.w3.org/Graphics/SVG/1.1/DTD/svg11.dtd">
<svg xmlns="http://www.w3.org/2000/svg" xmlns:dc="http://purl.org/dc/elements/1.1/" version="1.1" xmlns:xl="http://www.w3.org/1999/xlink" viewBox="-884.3578 -3555.2937 24.75 24.75" width="24.75" height="24.75">
  <defs/>
  <g id="SOURCES" stroke-dasharray="none" stroke-opacity="1" stroke="none" fill="none" fill-opacity="1">
    <title>SOURCES</title>
    <g id="SOURCES_Light">
      <title>Light</title>
      <g id="Group_12379">
        <g id="Graphic_12382">
          <circle cx="-871.9828" cy="-3542.9187" r="8.00000702080164" fill="#666"/>
          <circle cx="-871.9828" cy="-3542.9187" r="8.00000702080164" stroke="black" stroke-linecap="round" stroke-linejoin="round" stroke-width="0"/>
        </g>
        <g id="Graphic_12381"/>
        <g id="Graphic_12380">
          <circle cx="-871.9828" cy="-3542.9187" r="8.00000702080164" fill="white"/>
          <circle cx="-871.9828" cy="-3542.9187" r="8.00000702080164" stroke="black" stroke-linecap="round" stroke-linejoin="round" stroke-width="0"/>
        </g>
      </g>
      <g id="Group_12372">
        <title>arrow-circle-up</title>
        <g id="Graphic_12378">
          <path d="M -863.9828 -3542.9187 C -863.9828 -3538.4976 -867.5617 -3534.9187 -871.9828 -3534.9187 C -876.4038 -3534.9187 -879.9828 -3538.4976 -879.9828 -3542.9187 C -879.9828 -3547.3398 -876.4038 -3550.9187 -871.9828 -3550.9187 C -867.5617 -3550.9187 -863.9828 -3547.3398 -863.9828 -3542.9187 Z M -864.8249 -3542.9187 C -864.8249 -3546.868 -868.0333 -3550.0766 -871.9828 -3550.0766 C -875.9322 -3550.0766 -879.1407 -3546.868 -879.1407 -3542.9187 C -879.1407 -3538.9692 -875.9322 -3535.761 -871.9828 -3535.761 C -868.0333 -3535.761 -864.8249 -3538.9692 -864.8249 -3542.9187 Z" fill="#5d76a1"/>
        </g>
        <g id="Group_12373">
          <g id="Group_12376">
            <title>chevron-left</title>
            <g id="Graphic_12377">
              <path d="M -873.5238 -3540.2492 C -873.3722 -3540.0724 -873.3891 -3539.803 -873.5659 -3539.6513 C -873.7428 -3539.4998 -874.0122 -3539.5166 -874.1638 -3539.6934 L -876.6901 -3542.641 C -876.8249 -3542.801 -876.8249 -3543.028 -876.6901 -3543.188 L -874.1638 -3546.1355 C -874.0122 -3546.3124 -873.7428 -3546.3292 -873.5659 -3546.1776 C -873.3891 -3546.026 -873.3722 -3545.7566 -873.5238 -3545.5798 L -875.8143 -3542.9103 L -873.5238 -3540.241 Z" fill="#5d76a1"/>
            </g>
          </g>
          <g id="Group_12374">
            <title>chevron-right</title>
            <g id="Graphic_12375">
              <path d="M -868.1428 -3542.9187 L -870.4333 -3545.588 C -870.5849 -3545.765 -870.568 -3546.0345 -870.3912 -3546.186 C -870.2143 -3546.3376 -869.9449 -3546.321 -869.7933 -3546.144 L -867.267 -3543.1966 C -867.1322 -3543.0366 -867.1322 -3542.8092 -867.267 -3542.6492 L -869.7933 -3539.702 C -869.9449 -3539.525 -870.2143 -3539.508 -870.3912 -3539.6598 C -870.568 -3539.8113 -870.5849 -3540.081 -870.4333 -3540.2576 L -868.1428 -3542.927 Z" fill="#5d76a1"/>
            </g>
          </g>
        </g>
      </g>
    </g>
  </g>
</svg>
